X:46
T:Persie House Reel
C:Robert Petrie
S:Petrie's Collection of Strathspey Reels and Country Dances &c., 1790
Z:Steve Wyrick , 6/4/04
N:Petrie's First Collection, page 20
L:1/8
V:1 name = "violin"
V:2 name = "bass" clef=bass middle=d transpose=-24
M:C
R:Reel
K:Em
[V:1] B|E/E/E BE GBEG|FDAD FADF|GEBE GBAc|BGAF GEE:|
[V:2] z|E2    G2 e2E2|D2F2 d2f2|e2g2 e2f2|b2B2 e2E:|
[V:1] f|Bgeg bgeg|dafg afdf|Bgeg bgeg|BaTgf geef|
[V:2] z|e2g2 e2g2|f2d'2f2d2|e2g2 e2g2|b2 B2 e2z2|
[V:1] Bgeg bgeg|dafg afdf|gef^d eBcA|GBAF GEE|]
[V:2] e2g2 e2g2|f2d'2d2f2|e2b2  g2a2|b2B2 e2E|]
% The above code was written using Phil Taylor's BarFly abc reader/converter/player program.
% Other abc converters (e.g. abc2ps) may require everything after the word "bass" to be
% deleted in the V:2 header line for correct display of notes the bass clef, or require that
% the M: and K: fields be repeated directly under the V:1 header line to display the meter
% and key signature on both staffs.  Some abc MIDI players (e.g. abc2midi) will not play
% multiple-voiced abc code.  -SW
